contributed-vectors/dfndr_security.svg

<?xml version="1.0" encoding="UTF-8" standalone="no"?>
<svg
   sodipodi:docname="dfndr_security.svg"
   inkscape:version="1.2 (dc2aedaf03, 2022-05-15)"
   version="1.1"
   id="svg2"
   viewBox="0 0 192 192"
   height="192"
   width="192"
   inkscape:export-filename="png/dfndr_security.png"
   inkscape:export-xdpi="96"
   inkscape:export-ydpi="96"
   xml:space="preserve"
   xmlns:inkscape="http://www.inkscape.org/namespaces/inkscape"
   xmlns:sodipodi="http://sodipodi.sourceforge.net/DTD/sodipodi-0.dtd"
   xmlns:xlink="http://www.w3.org/1999/xlink"
   xmlns="http://www.w3.org/2000/svg"
   xmlns:svg="http://www.w3.org/2000/svg"
   xmlns:rdf="http://www.w3.org/1999/02/22-rdf-syntax-ns#"
   xmlns:cc="http://creativecommons.org/ns#"
   xmlns:dc="http://purl.org/dc/elements/1.1/"><sodipodi:namedview
     inkscape:document-rotation="0"
     inkscape:window-maximized="1"
     inkscape:window-y="0"
     inkscape:window-x="36"
     inkscape:window-height="1052"
     inkscape:window-width="1884"
     units="px"
     showgrid="false"
     inkscape:current-layer="layer1"
     inkscape:document-units="px"
     inkscape:cy="45.254833"
     inkscape:cx="19.445436"
     inkscape:zoom="1.4142136"
     inkscape:pageshadow="2"
     inkscape:pageopacity="0.0"
     borderopacity="1.0"
     bordercolor="#666666"
     pagecolor="#ffffff"
     id="base"
     inkscape:snap-bbox="false"
     inkscape:object-paths="true"
     inkscape:snap-nodes="true"
     showguides="true"
     inkscape:guide-bbox="true"
     inkscape:snap-object-midpoints="true"
     inkscape:snap-center="true"
     inkscape:snap-global="false"
     inkscape:snap-intersection-paths="true"
     inkscape:snap-smooth-nodes="true"
     inkscape:snap-midpoints="true"
     inkscape:showpageshadow="0"
     inkscape:pagecheckerboard="0"
     inkscape:deskcolor="#d1d1d1"><inkscape:grid
       type="xygrid"
       id="grid1667" /></sodipodi:namedview><defs
     id="defs4"><path
       id="path1_fill"
       d="M 24.6482 -1.11378e-06C 16.0942 -1.11378e-06 7.70603 2.20803 0.276533 6.38688C 0.110613 6.47812 5.62606e-07 6.6606 5.62606e-07 6.86133C 0.0368715 12.5183 1.06926 18.084 3.02342 23.3577C 3.15246 23.7044 3.59492 23.8139 3.88988 23.5767C 12.3149 16.7884 23.9661 14.2884 35.0458 17.938C 35.4514 18.0657 35.8017 18.376 36.0045 18.7592C 36.2073 19.1424 36.2257 19.5986 36.0966 20L 32.4649 30.803L 29.4414 39.7446C 29.3493 40.0001 29.4599 40.2738 29.6995 40.4016C 30.7135 40.9855 31.58 41.7519 32.2989 42.6096C 32.5017 42.8651 32.8704 42.9016 33.1101 42.6826C 36.8894 39.2884 40.134 35.3286 42.6965 30.9307C 46.9736 23.6132 49.2411 15.3103 49.2964 6.84308C 49.2964 6.64235 49.1858 6.47812 49.0199 6.36863C 41.5904 2.18978 33.2023 -1.11378e-06 24.6482 -1.11378e-06Z" /><path
       id="path2_fill"
       d="M 10.4203 2.47401C 10.6047 2.69299 10.5494 3.02146 10.3097 3.18569C 8.77958 4.31708 7.19413 5.37547 5.53494 6.34263C 5.36902 6.43387 5.16623 6.43387 4.98187 6.34263C 3.32268 5.37547 1.7188 4.31708 0.207087 3.18569C -0.0141389 3.02146 -0.0694464 2.69299 0.0964728 2.47401C 1.75566 0.375465 4.6316 -0.555196 7.34161 0.338967C 8.61366 0.758676 9.64605 1.5251 10.4203 2.47401Z" /><path
       id="path3_fill"
       d="M 5.9294 11.7234C 5.72661 11.9789 5.3579 12.0154 5.11824 11.7964C 3.33 10.1906 1.67081 8.45698 0.122227 6.61391C -0.0436921 6.41318 -0.0436938 6.12121 0.140661 5.92048C 4.32551 1.32193 10.7595 -0.922602 17.1197 0.354773C 17.4331 0.409518 17.6175 0.737984 17.5069 1.0482L 15.2209 7.81829C 15.1287 8.07377 14.889 8.21976 14.6125 8.20151C 11.2941 7.83654 8.01261 9.18691 5.9294 11.7234Z" /><path
       id="path4_fill"
       d="M 3.71723 14.4336C 3.92002 14.7256 4.3256 14.7439 4.56526 14.5066C 9.63501 9.37888 17.1567 7.00661 24.5309 8.6672C 24.8074 8.72194 25.1024 8.57596 25.1945 8.30223L 27.4621 1.58689C 27.5543 1.29492 27.3884 0.966452 27.0934 0.893459C 17.3226 -1.5518 7.31215 1.14893 0.17762 7.44457C -0.00673435 7.6088 -0.0436061 7.86428 0.0485712 8.06501C 0.601635 9.1964 1.19157 10.3278 1.83681 11.4227C 2.40831 12.4446 3.05355 13.4482 3.71723 14.4336Z" /><clipPath
       clipPathUnits="userSpaceOnUse"
       id="clipPath2254"><path
         d="m -31.39,-55.271 h 426 v 75.99999 h -426 z"
         fill="#ffffff"
         id="path2256" /></clipPath><clipPath
       clipPathUnits="userSpaceOnUse"
       id="clipPath2260"><path
         d="m -23.09,-43.886 h 426 v 75.99999 h -426 z"
         fill="#ffffff"
         id="path2262" /></clipPath><clipPath
       clipPathUnits="userSpaceOnUse"
       id="clipPath2266"><path
         d="m -16.8,-32.508 h 426 v 75.99999 h -426 z"
         fill="#ffffff"
         id="path2268" /></clipPath><clipPath
       clipPathUnits="userSpaceOnUse"
       id="clipPath2272"><path
         d="M -12,-13 H 414 V 62.99999 H -12 Z"
         fill="#ffffff"
         id="path2274" /></clipPath></defs><metadata
     id="metadata7"><rdf:RDF><cc:Work
         rdf:about=""><dc:format>image/svg+xml</dc:format><dc:type
           rdf:resource="http://purl.org/dc/dcmitype/StillImage" /></cc:Work></rdf:RDF></metadata><g
     transform="translate(0,-860.36216)"
     id="layer1"
     inkscape:groupmode="layer"
     inkscape:label="Calque 1"><rect
       style="fill:#bd9aff;fill-opacity:1;fill-rule:evenodd;stroke:none;stroke-width:0.993464;stroke-opacity:1"
       width="152"
       height="152"
       x="20"
       y="880.36218"
       rx="9.9346409"
       id="rect461"
       ry="9.9346409" /><use
       xlink:href="#path1_fill"
       transform="matrix(1.4808384,0,0,1.4808384,59.499999,920.31703)"
       fill="#6100ff"
       id="use1437"
       clip-path="url(#clipPath2272)"
       style="fill:#ffffff;fill-opacity:1" /><use
       xlink:href="#path2_fill"
       transform="matrix(1.4808384,0,0,1.4808384,88.213456,982.91355)"
       fill="#6100ff"
       id="use1443"
       clip-path="url(#clipPath2254)"
       style="fill:#ffffff;fill-opacity:1" /><use
       xlink:href="#path3_fill"
       transform="matrix(1.4808384,0,0,1.4808384,75.922497,966.05421)"
       fill="#6100ff"
       id="use1449"
       clip-path="url(#clipPath2260)"
       style="fill:#ffffff;fill-opacity:1" /><use
       xlink:href="#path4_fill"
       transform="matrix(1.4808384,0,0,1.4808384,66.608024,949.20523)"
       fill="#6100ff"
       id="use1455"
       clip-path="url(#clipPath2266)"
       style="fill:#ffffff;fill-opacity:1" /></g><style
     type="text/css"
     id="style853">
	.st0{fill:#FFFFFF;}
</style><style
     type="text/css"
     id="style853-9">
	.st0{fill:#FFFFFF;}
</style><style
     type="text/css"
     id="style853-3">
	.st0{fill:#FFFFFF;}
</style></svg>

<svg xmlns="http://www.w3.org/2000/svg" xmlns:xlink="http://www.w3.org/1999/xlink" xml:space="preserve" id="svg2" width="192" height="192" version="1.1"><defs id="defs4"><clipPath id="clipPath2254" clipPathUnits="userSpaceOnUse"><path id="path2256" fill="#fff" d="M-31.39-55.271h426v76h-426z"/></clipPath><clipPath id="clipPath2260" clipPathUnits="userSpaceOnUse"><path id="path2262" fill="#fff" d="M-23.09-43.886h426v76h-426z"/></clipPath><clipPath id="clipPath2266" clipPathUnits="userSpaceOnUse"><path id="path2268" fill="#fff" d="M-16.8-32.508h426v76h-426z"/></clipPath><clipPath id="clipPath2272" clipPathUnits="userSpaceOnUse"><path id="path2274" fill="#fff" d="M-12-13h426v76H-12Z"/></clipPath><path id="path1_fill" d="M24.648 0A49.707 49.707 0 0 0 .277 6.387.544.544 0 0 0 0 6.86a48.325 48.325 0 0 0 3.023 16.497c.13.346.572.456.867.219a33.109 33.109 0 0 1 31.156-5.639c.405.128.756.438.959.821.202.383.22.84.092 1.241l-3.632 10.803-3.024 8.942a.534.534 0 0 0 .259.657 9.774 9.774 0 0 1 2.599 2.208.554.554 0 0 0 .811.073 48.903 48.903 0 0 0 9.587-11.752 48.34 48.34 0 0 0 6.6-24.088c0-.2-.111-.365-.277-.474A49.689 49.689 0 0 0 24.648 0Z"/><path id="path2_fill" d="M10.42 2.474a.485.485 0 0 1-.11.712 52.501 52.501 0 0 1-4.775 3.157.593.593 0 0 1-.553 0A50.063 50.063 0 0 1 .207 3.186a.516.516 0 0 1-.11-.712C1.755.375 4.631-.556 7.341.339a6.643 6.643 0 0 1 3.078 2.135Z"/><path id="path3_fill" d="M5.93 11.723a.554.554 0 0 1-.812.073A51.285 51.285 0 0 1 .122 6.614a.524.524 0 0 1 .019-.694A18.17 18.17 0 0 1 17.12.355a.518.518 0 0 1 .387.693l-2.286 6.77a.584.584 0 0 1-.608.384 9.873 9.873 0 0 0-8.684 3.521Z"/><path id="path4_fill" d="M3.717 14.434c.203.292.609.31.848.073a21.48 21.48 0 0 1 19.966-5.84c.276.055.571-.091.664-.365l2.267-6.715c.092-.292-.074-.62-.369-.694-9.77-2.445-19.78.256-26.915 6.552a.533.533 0 0 0-.13.62 48.987 48.987 0 0 0 1.789 3.358 43.091 43.091 0 0 0 1.88 3.01Z"/></defs><g id="layer1" transform="translate(0 -860.362)"><rect id="rect461" width="152" height="152" x="20" y="880.362" rx="9.935" ry="9.935" style="fill:#bd9aff;fill-opacity:1;fill-rule:evenodd;stroke:none;stroke-width:.993464;stroke-opacity:1"/><use xlink:href="#path1_fill" id="use1437" fill="#6100ff" clip-path="url(#clipPath2272)" style="fill:#fff;fill-opacity:1" transform="matrix(1.48084 0 0 1.48084 59.5 920.317)"/><use xlink:href="#path2_fill" id="use1443" fill="#6100ff" clip-path="url(#clipPath2254)" style="fill:#fff;fill-opacity:1" transform="matrix(1.48084 0 0 1.48084 88.213 982.914)"/><use xlink:href="#path3_fill" id="use1449" fill="#6100ff" clip-path="url(#clipPath2260)" style="fill:#fff;fill-opacity:1" transform="matrix(1.48084 0 0 1.48084 75.922 966.054)"/><use xlink:href="#path4_fill" id="use1455" fill="#6100ff" clip-path="url(#clipPath2266)" style="fill:#fff;fill-opacity:1" transform="matrix(1.48084 0 0 1.48084 66.608 949.205)"/></g><style id="style853" type="text/css">.st0{fill:#fff}</style></svg>
